X:109
T:Spailpin Fanach, The
R:polka
H:Same tune as reel#682 (The West Cork Reel)
Z:id:hn-polka-109
M:2/4
L:1/8
K:D
D/E/F/G/ AB | =cA AG | Ad d^c | d2 d>e |
fd ed | cA AB | cA GE |1 D2 D2 :|2 D2 D>e ||
fd ed | cA A>e | fd ec | d2 d>e |
fd ed | cA AB | cA GE | D2 D>e |
fd ed | cA A>e | fd ef | g2 a>g |
fd ed | cA AB | cA GE | D2 D2 ||
P:variations
|: D/E/F/G/ AB | ^cA AG | Ad d^c | d2 d>e |
fd ed | cA AB | =cA GE |1 D2 D2 :|2 D2 d>e ||
|: fd ed | cA A>e | fd ef | g2 a>g |
fd ed | cA AB |1 =cA GE | D2 d>e :|2 =cA GE | D2 D2 ||

